X:107
T:Sean Francis Horvay 
R:reel
C: 2003, 2010 L.E. McCullough 
M:4/4
L:1/8
K:D 
DE|:~F3A BABc|d~A3 GFED|F~A3 BABc|defe edBA|
~F3A BABc|d~A3 GFED|gfeg fedA|1 (3Bcd fe d2DE:|2 (3Bcd fe d2fd|]
|:e~A3 gfeg|f~A3 de (3fed|eAeg fdfa|(3gfe fd edcd|
e~A3 gfeg|f~a3 bagf|gfeg fedA|1 (3Bcd fe d2fd:|2 (3Bcd fe d2DE|]
<end>
<start>
